X:9
T:Finn Pals Polska
M:3/4
L:1/8
Q:1/4=120
R:polska
K:Gm
|: "Gm" d>d "D7" cc "Gm" BB | "D7" A/2B/2A/2^F/2 "Gm" G2 D2 |
"Gm" G>A Bc dg | "D" dc "Gm" d2 "D" D2 | !
"Dm" d>d ff dd | "Cm" c>c ee "D7" dd |
"Gm" B>B dd BG | "D7" ^F/2G/2A/2F/2 "Gm" G2 [G,2B,2] :| !
|: "Gm" G>A Bc/2B/2 AG | "D" ^F/2G/2A/2F/2 "Gm" G2 D2 |
"Gm" G>A Bc dg | "D" dc "Gm" d2 "D" D2 | !
"Dm" d>d ff dd | "Cm" c>c ee "D7" dd |
"Gm" B>B dd BG | "D7" ^F/2G/2A/2F/2 "Gm" G2 [G,2B,2] :| !
